src/assets/duotone/MessageRemove.svg

<svg width="24" height="24" viewBox="0 0 24 24"  xmlns="http://www.w3.org/2000/svg">
<path opacity="0.4" d="M22 7.43018V13.4302C22 14.9302 21.5 16.1802 20.62 17.0602C19.75 17.9302 18.5 18.4302 17 18.4302V20.5602C17 21.3602 16.11 21.8402 15.45 21.4002L11 18.4302H8.88C8.96 18.1302 9 17.8202 9 17.5002C9 16.4802 8.61 15.5402 7.97 14.8302C7.25 14.0102 6.18 13.5002 5 13.5002C3.88 13.5002 2.86 13.9602 2.13 14.7102C2.04 14.3102 2 13.8802 2 13.4302V7.43018C2 4.43018 4 2.43018 7 2.43018H17C20 2.43018 22 4.43018 22 7.43018Z" />
<path d="M15.5 11.25H8.5C8.09 11.25 7.75 10.91 7.75 10.5C7.75 10.09 8.09 9.75 8.5 9.75H15.5C15.91 9.75 16.25 10.09 16.25 10.5C16.25 10.91 15.91 11.25 15.5 11.25Z" />
<path d="M7.97 14.83C7.25 14.01 6.18 13.5 5 13.5C2.79 13.5 1 15.29 1 17.5C1 18.25 1.20999 18.96 1.57999 19.56C1.77999 19.9 2.04 20.21 2.34 20.47C3.04 21.11 3.97 21.5 5 21.5C6.46 21.5 7.73001 20.72 8.42001 19.56C8.79001 18.96 9 18.25 9 17.5C9 16.48 8.61 15.54 7.97 14.83ZM6.60001 19.08C6.45001 19.23 6.26001 19.3 6.07001 19.3C5.88001 19.3 5.69001 19.23 5.54001 19.08L5.01001 18.55L4.45999 19.1C4.30999 19.25 4.11999 19.32 3.92999 19.32C3.73999 19.32 3.54999 19.25 3.39999 19.1C3.10999 18.81 3.10999 18.33 3.39999 18.04L3.95001 17.49L3.42001 16.96C3.13001 16.67 3.13001 16.19 3.42001 15.9C3.71001 15.61 4.19001 15.61 4.48001 15.9L5.01001 16.43L5.51001 15.93C5.80001 15.64 6.28001 15.64 6.57001 15.93C6.86001 16.22 6.86001 16.7 6.57001 16.99L6.07001 17.49L6.60001 18.02C6.89001 18.31 6.89001 18.78 6.60001 19.08Z" />
</svg>

<?xml version="1.0" encoding="UTF-8"?>
<svg width="24" height="24" viewBox="0 0 24 24" xmlns="http://www.w3.org/2000/svg">
 <path d="m22 7.4302v6c0 1.5-0.5 2.75-1.38 3.63-0.87 0.87-2.12 1.37-3.62 1.37v2.13c0 0.8-0.89 1.28-1.55 0.84l-4.45-2.97h-2.12c0.08-0.3 0.12-0.61 0.12-0.93 0-1.02-0.39-1.96-1.03-2.67-0.72-0.82-1.79-1.33-2.97-1.33-1.12 0-2.14 0.46-2.87 1.21-0.09-0.4-0.13-0.83-0.13-1.28v-6c0-3 2-5 5-5h10c3 0 5 2 5 5z" opacity=".4"/>
 <path d="m15.5 11.25h-7c-0.41 0-0.75-0.34-0.75-0.75s0.34-0.75 0.75-0.75h7c0.41 0 0.75 0.34 0.75 0.75s-0.34 0.75-0.75 0.75z"/>
 <path d="m7.97 14.83c-0.72-0.82-1.79-1.33-2.97-1.33-2.21 0-4 1.79-4 4 0 0.75 0.20999 1.46 0.57999 2.06 0.2 0.34 0.46001 0.65 0.76001 0.91 0.7 0.64 1.63 1.03 2.66 1.03 1.46 0 2.73-0.78 3.42-1.94 0.37-0.6 0.57999-1.31 0.57999-2.06 0-1.02-0.39-1.96-1.03-2.67zm-1.37 4.25c-0.15 0.15-0.34 0.22-0.53 0.22s-0.38-0.07-0.53-0.22l-0.53-0.53-0.55002 0.55c-0.15 0.15-0.34 0.22-0.53 0.22s-0.38-0.07-0.53-0.22c-0.29-0.29-0.29-0.77 0-1.06l0.55002-0.55-0.53-0.53c-0.29-0.29-0.29-0.77 0-1.06s0.77-0.29 1.06 0l0.53 0.53 0.5-0.5c0.29-0.29 0.77-0.29 1.06 0s0.29 0.77 0 1.06l-0.5 0.5 0.53 0.53c0.29 0.29 0.29 0.76 0 1.06z"/>
</svg>
